X:1
T:The Wonderful Savior
T:The Wonderful Savior
T:Charles Hutchinson Gabriel
T:D. C. Carson, 1897
T:Public Domain Courtesy of the Cyber Hymnal™
T:Public Domain Courtesy of the Cyber Hymnal™
C:Charles Hutchinson Gabriel
Z:Public Domain
Z:Courtesy of the Cyber Hymnal™
%%score ( 1 2 ) ( 3 4 )
L:1/8
Q:1/4=102
M:4/4
K:Db
V:1 treble 
V:2 treble 
V:3 bass 
V:4 bass 
V:1
 (DE) | [DF]2 [DF]2 [DF]2 ([DF][EG]) | [FA]2 [FA]2 [FA]4 | [Fd] [Fd]2 [FA] [GB][FA] [DF]2 | %4
w: 1.~I’ve *|found a friend, the *|best of all,|Je- sus, the won- der- ful|
w: 2.~With *|out- cast sin- ners *|He did eat,|Je- sus, the won- der- ful|
w: 3.~For *|us He suf- fered *|want and shame,|Je- sus, the won- der- ful|
 [DF]4 [CE]2 (DE) | [DF]2 [DF]2 [DF]2 ([DF][EG]) | [FA]2 [FA]2 [FA]4 | %7
w: Sav- ior! He *|heard my weak but *|ear- nest call,|
w: Sav- ior! And *|washed His own dis- *|ci- ples’ feet,|
w: Sav- ior! We’re *|saved thro’ faith in *|His dear name,|
 [Fd] [Fd]2 [FA] [GB][FA] [DF]2 | [CE]4 D2 [FA]2 | [GB]2 [GB]2 [GB]2 [Gd]2 | %10
w: Je- sus, the won- der- ful|Sav- ior! When|lost in sin He|
w: Je- sus, the won- der- ful|Sav- ior! Tho’|with- out sin, for|
w: Je- sus, the won- der- ful|Sav- ior! No|o- ther name for|
 [Fd]2 [EB]2 [DA]2 [DF]2 | [CA]2 [CE]2 [CE]2 ([EG][GB]) | [GB]2 [FA]2 [FA]2 [FA]2 | %13
w: heard my cry, To|earth He came for *|me to die; And|
w: us He died, On|Cal- v’ry’s cross was *|cru- ci- fied; Bur-|
w: sin- ners giv’n, No|o- ther name in *|earth or Heav’n; But|
 [GB]2 [GB]2 [GB]2 [Gd]2 | [Fd]2 [EB]2 [DA]2 [DF][EG] | [FA][FA] D2 [DF][DF] [CE]2 | [CE]4 D4 || %17
w: now He’s reign- ing|up on high, Is this|won- der- ful, won- der- ful|Sav- ior!|
w: ied, a- rose, and|glor- i- fied, Was this|won- der- ful, won- der- ful|Sav- ior!|
w: all must come, who’d|be for- giv’n, To this|won- der- ful, won- der- ful|Sav- ior!|
"^Refrain" [Fd][Fd] [Ad]2 [Gd][Gd] [GB]2 | [FA]4 [DF]2 z2 | [Fd][Fd] [Bd]2 [=Gd][Gc] [GB]2 | %20
w: |||
w: Won- der- ful, won- der- ful|Sav- ior!|Won- der- ful, won- der- ful|
w: |||
 [EB]4 [EA]2 (Bc) | [Fd]2 [Fd]2 [Ac]2 [GB]2 | [FA][FA] [Fd]2 [FA]2 [DF][EG] | %23
w: |||
w: Sav- ior! Of *|Him I’ll sing, and|ev- er will cling, To this|
w: |||
 [FA][FA] D2 [DF][DF] [CE]2 | [CE]4 D2 |] %25
w: ||
w: won- der- ful, won- der- ful|Sav- ior!|
w: ||
V:2
 D2 | x8 | x8 | x8 | x6 D2 | x8 | x8 | x8 | x4 D2 x2 | x8 | x8 | x8 | x8 | x8 | x8 | x2 D2 x4 | %16
 x4 D4 || x8 | x8 | x8 | x6 G2 | x8 | x8 | x2 D2 x4 | x4 D2 |] %25
V:3
 (F,G,) | [D,A,]2 [D,A,]2 [D,A,]2 [D,A,]2 | [D,D]2 [D,D]2 [D,D]4 | %3
 [D,A,] [D,A,]2 [D,D] [D,D][D,D] [D,A,]2 | [A,,A,]4 [A,,A,]2 (F,G,) | %5
 [D,A,]2 [D,A,]2 [D,A,]2 [D,A,]2 | [D,D]2 [D,D]2 [D,D]4 | [D,A,] [D,A,]2 [D,D] [D,D][D,D] [D,A,]2 | %8
 [A,,G,]4 [D,F,]2 [D,D]2 | [G,D]2 [G,D]2 [G,D]2 [G,B,]2 | [D,A,]2 [D,G,]2 [D,F,]2 [D,A,]2 | %11
 [A,,A,]2 [A,,A,]2 [A,,A,]2 [A,,C]2 | [D,D]2 [D,D]2 [D,D]2 [D,D]2 | [G,D]2 [G,D]2 [G,D]2 [G,B,]2 | %14
 [D,A,]2 [D,G,]2 [D,F,]2 [D,A,][D,A,] | [A,,D][A,,D] [A,,F,]2 [A,,A,][A,,A,] [A,,G,]2 | %16
 [A,,G,]4 [D,F,]4 || [D,A,][D,A,] [F,D]2 [G,B,][G,B,] [G,D]2 | [D,D]4 [D,A,]2 z2 | %19
 [B,,B,][B,,D] [B,,F]2 [E,E][E,E] [E,D]2 | [E,D]4 [A,,C]2 A,2 | [D,A,]2 [D,A,]2 [F,D]2 [G,D]2 | %22
 [D,D][D,D] [D,A,]2 [D,D]2 [D,A,][D,A,] | [A,,D][A,,D] [A,,F,]2 [A,,A,][A,,A,] [A,,G,]2 | %24
 [A,,G,]4 [D,F,]2 |] %25
V:4
 D,2 | x8 | x8 | x8 | x6 D,2 | x8 | x8 | x8 | x8 | x8 | x8 | x8 | x8 | x8 | x8 | x8 | x8 || x8 | %18
 x8 | x8 | x6 A,2 | x8 | x8 | x8 | x6 |] %25

